src/assets/filled/OmegaCircle.svg

<?xml version="1.0" encoding="UTF-8"?>
<svg width="24" height="24" viewBox="0 0 24 24" xmlns="http://www.w3.org/2000/svg">
 <path d="m12 2c-5.52 0-10 4.48-10 10s4.48 10 10 10 10-4.48 10-10-4.48-10-10-10zm5 15.25h-3.1c-0.3 0-0.57-0.17-0.69-0.45s-0.07-0.59 0.13-0.81l1.62-1.79c0.67-0.75 1.05-1.7 1.05-2.68 0-1-0.41-1.94-1.16-2.65s-1.79-1.12-2.85-1.12-2.1 0.41-2.85 1.12-1.16 1.65-1.16 2.65c0 0.98 0.37 1.93 1.05 2.68l1.61 1.8c0.2 0.22 0.25 0.54 0.13 0.81s-0.39 0.45-0.69 0.45h-3.09c-0.41 0-0.75-0.34-0.75-0.75s0.34-0.76 0.75-0.76h1.41l-0.49-0.54c-0.92-1.02-1.43-2.33-1.43-3.69 0-1.39 0.59-2.76 1.63-3.74 1.04-0.99 2.41-1.53 3.88-1.53s2.84 0.54 3.88 1.53c1.03 0.98 1.63 2.35 1.63 3.74 0 1.35-0.51 2.66-1.43 3.69l-0.49 0.54h1.41c0.41 0 0.75 0.34 0.75 0.75s-0.34 0.75-0.75 0.75z"/>
</svg>

<svg width="24" height="24" viewBox="0 0 24 24"  xmlns="http://www.w3.org/2000/svg">
<path d="M12 2C6.48 2 2 6.48 2 12C2 17.52 6.48 22 12 22C17.52 22 22 17.52 22 12C22 6.48 17.52 2 12 2ZM17 17.25H13.9C13.6 17.25 13.33 17.08 13.21 16.8C13.09 16.52 13.14 16.21 13.34 15.99L14.96 14.2C15.63 13.45 16.01 12.5 16.01 11.52C16.01 10.52 15.6 9.58 14.85 8.87C14.1 8.16 13.06 7.75 12 7.75C10.94 7.75 9.9 8.16 9.15 8.87C8.4 9.58 7.99 10.52 7.99 11.52C7.99 12.5 8.36 13.45 9.04 14.2L10.65 16C10.85 16.22 10.9 16.54 10.78 16.81C10.66 17.08 10.39 17.26 10.09 17.26H7C6.59 17.26 6.25 16.92 6.25 16.51C6.25 16.1 6.59 15.75 7 15.75H8.41L7.92 15.21C7 14.19 6.49 12.88 6.49 11.52C6.49 10.13 7.08 8.76 8.12 7.78C9.16 6.79 10.53 6.25 12 6.25C13.47 6.25 14.84 6.79 15.88 7.78C16.91 8.76 17.51 10.13 17.51 11.52C17.51 12.87 17 14.18 16.08 15.21L15.59 15.75H17C17.41 15.75 17.75 16.09 17.75 16.5C17.75 16.91 17.41 17.25 17 17.25Z" />
</svg>
